X: 6
T: The Crock Of Gold
R: reel
M: 4/4
L: 1/8
K: Gmaj
|: B2 B2 BAGE | G3A GEDB | DEGA BAGA | B2dB BAA2 |
B2 B2 BAGE | G3A GED2 | g2fg egdB | DEGA BGG2 :|
|: eaa2 bage | a2ba gede | gedB GABd | (3efg dB BAA2 |
eaa2 bage | a2ba gede | g2fg egdB | DEGA BGG2 :|


Tune 433	Setting 13295

